X:1
T:The Three Knights
M:3/4
L:1/8
K:F
 D| GA B2A-G| ^FG A2 AA| B2 AG ^FG| A2 z2 z G| AGG-F EF|G-F FE D^C|\
 D2 FG AF| D2 z2 z||
